X:3
T:Turregrat-Juiz  Bb  ABAC
T:Toni Vogler (2.4.1940)
T:Dirigenten-Notiz  Edi Gasser
C:Unterwalden (CH)
%%partsbox
P:ABAC
M:2/4
R:Naturjodel
L:1/8
K:Bb
[P:A] B,2 DG | F2d2 | B4 | B,2DG | F2f2 | d3D | Ff ed | c3F | c3E | Ff cd | 
B3c | B3D | FD FB | A3c | E2Ff | d2c2 | B3D | FD Fd | (B4 | B2)z2 | 
B,2 DG | F2d2 | B4 | B,2DG | F2f2 | d3D | Ff ed | c3F | c3E | 
Ff cd | B3c | B3D | FD FB | A3c | E2Ff | d2c2 | (B4 | B2)z2 ||  
L:1/8
M:2/4
[P:B] B,D | F>D Fd | BB, DG | F>D Ff | d2GF | f2 ec | AE Fe | d2 Bd | 
F2 B,D | F>D Fd | BD EF | G>E Ge | c2Be | d>B dB | c2f2 dc | (B4 | B2)z2 || 
M:3/4
[P:C] F2 | DF BD FB | DF BD Fd | c2cE Fd | c3F Ac | f3cf2 | 
e2d2c2 | B3d BG | F4F2 | DF BD FB | DF BD Fd | c2cE Fd | 
c3F Ac | f3cf2 | e2d2c2 | B4F2 | F3CF2 | f2d2c2 | B6 |] 
W:
%W:Reihenfolge: A-B-A-C
W:UJV-Naturjodelsammlung: Code-Nr: 16-02
W:http://www.naturjodler.ch/code 16.htm  (with AUDIO)
%May 10, 2018

